!!!OTL: Haensje klein geht allein in de Ruett'gweiler Sportverein
!!!ARE: Europa, Mitteleuropa, Deutschland, Ottweiler, Welschbach
!!!SCT: D1021
!!!YEM: Copyright 1995, estate of Helmut Schaffrath.
**kern
*ICvox
*Ivox
*M2/4
*k[f#c#]
*D:
{8a
8f#
4f#
=1
8g
8e
4e}
=2
{8d
8e
8f#
16g
16g
=3
8a
8a
8a
8r}
=4
{8a
16f#
16f#
8f#
16r
16f#
=5
8g
16e
16e
8e
8r}
=6
{8d
8e
8f#
8g
=7
8a
8a
8a
8r}
=8
{8f#
8f#
8f#
8f#
=9
8b
8a
8a
8r}
=10
{8f#
8f#
8f#
8f#
=11
8f#
8a
8a
8r}
=12
{8f#
8f#
8f#
8f#
=13
8b
8f#
8f#
8r}
==
!!!AGN: Kinder -, Scherz -, Neck - Lied
!! DVA-Signatur A 126 662
!!!ONB: ESAC (Essen Associative Code) Database: DVA
!!!AMT: simple duple
!!!AIN: vox
!!!EED: Helmut Schaffrath
!!!EEV: 1.0
*-
